svg/fluentui-system-icons/ic_fluent_usb_plug_20_regular.svg

<svg width="20" height="20" viewBox="0 0 20 20" fill="none" xmlns="http://www.w3.org/2000/svg">
<path d="M7.5 2H12.5C12.7761 2 13 2.22386 13 2.5V6H13.0789C14.1368 6 15 6.85284 15 7.91176V13.0882C15 14.1472 14.1368 15 13.0789 15H12V17.5C12 17.7761 11.7761 18 11.5 18C11.2239 18 11 17.7761 11 17.5V15H9V17.5C9 17.7761 8.77614 18 8.5 18C8.22386 18 8 17.7761 8 17.5V15H6.92105C5.86318 15 5 14.1472 5 13.0882V7.91176C5 6.85284 5.86318 6 6.92105 6H7V2.5C7 2.22386 7.22386 2 7.5 2ZM13.0789 14C13.5907 14 14 13.5887 14 13.0882V7.91176C14 7.4113 13.5907 7 13.0789 7H6.92105C6.40927 7 6 7.4113 6 7.91176V13.0882C6 13.5887 6.40927 14 6.92105 14H13.0789ZM12 6V3H8V6H12Z" fill="#212121"/>
</svg>

<svg xmlns="http://www.w3.org/2000/svg" width="20" height="20"><path d="M7.5 2h5a.5.5 0 0 1 .5.5V6h.079C14.137 6 15 6.853 15 7.912v5.176A1.916 1.916 0 0 1 13.079 15H12v2.5a.5.5 0 0 1-1 0V15H9v2.5a.5.5 0 0 1-1 0V15H6.921A1.916 1.916 0 0 1 5 13.088V7.912C5 6.852 5.863 6 6.921 6H7V2.5a.5.5 0 0 1 .5-.5Zm5.579 12a.916.916 0 0 0 .921-.912V7.912c0-.5-.41-.912-.921-.912H6.92a.916.916 0 0 0-.92.912v5.176c0 .5.41.912.921.912h6.158ZM12 6V3H8v3h4Z"/></svg>
